svgs/solid/shoe-prints.svg

<svg xmlns="http://www.w3.org/2000/svg" viewBox="0 0 640 512"><!-- Font Awesome Pro 6.0.0-alpha2 by @fontawesome - https://fontawesome.com License - https://fontawesome.com/license (Commercial License) --><path d="M192 159.993H224V32H192C156.625 32 128 60.623 128 95.996S156.625 159.993 192 159.993ZM0 415.978C0 451.351 28.625 479.974 64 479.974H96V351.981H64C28.625 351.981 0 380.605 0 415.978ZM337.5 287.985C302.5 287.985 261.25 301.109 232.75 319.983C208 336.357 188.25 351.981 128 351.981V479.974L185.5 495.973C211.75 503.223 238.5 509.097 265.875 510.972C298.5 513.347 331.5 511.722 363.375 504.848C472.875 481.224 512 429.227 512 383.98C512 319.983 427.875 287.985 337.5 287.985ZM491.375 7.252C459.5 0.377 426.5 -1.373 393.875 1.002C366.5 2.877 339.75 8.751 313.5 16.001L256 32V159.993C316.25 159.993 336 175.617 360.75 191.991C389.25 210.865 430.5 223.989 465.5 223.989C555.875 223.989 640 191.991 640 127.994C640 82.747 600.875 30.75 491.375 7.252Z"/></svg>

<svg xmlns="http://www.w3.org/2000/svg" viewBox="0 0 640 512"><!-- Font Awesome Pro 5.15.1 by @fontawesome - https://fontawesome.com License - https://fontawesome.com/license (Commercial License) --><path d="M192 160h32V32h-32c-35.35 0-64 28.65-64 64s28.65 64 64 64zM0 416c0 35.35 28.65 64 64 64h32V352H64c-35.35 0-64 28.65-64 64zm337.46-128c-34.91 0-76.16 13.12-104.73 32-24.79 16.38-44.52 32-104.73 32v128l57.53 15.97c26.21 7.28 53.01 13.12 80.31 15.05 32.69 2.31 65.6.67 97.58-6.2C472.9 481.3 512 429.22 512 384c0-64-84.18-96-174.54-96zM491.42 7.19C459.44.32 426.53-1.33 393.84.99c-27.3 1.93-54.1 7.77-80.31 15.04L256 32v128c60.2 0 79.94 15.62 104.73 32 28.57 18.88 69.82 32 104.73 32C555.82 224 640 192 640 128c0-45.22-39.1-97.3-148.58-120.81z"/></svg>
